assets/images/icons/cq-challenge-icon-3.svg

<svg width="70" height="64" viewBox="0 0 70 64" fill="none" xmlns="http://www.w3.org/2000/svg">
<path d="M41.4037 46.3194C41.5994 51.4598 41.7915 56.5189 41.9855 61.65C43.5998 61.65 45.1643 61.65 46.7269 61.65C46.9799 61.65 47.2367 61.6316 47.4879 61.6574C48.1307 61.7221 48.6312 62.254 48.622 62.8377C48.6127 63.3955 48.1325 63.9053 47.5248 63.9847C47.3198 64.0106 47.1092 63.9958 46.9024 63.9958C38.7291 63.9958 30.5558 63.9958 22.3826 63.9958C21.2928 63.9958 20.6667 63.571 20.6611 62.8266C20.6556 62.0841 21.2854 61.6519 22.3697 61.65C23.9397 61.6482 25.5097 61.6445 27.0797 61.6389C27.1222 61.6389 27.1646 61.6149 27.2847 61.5761C27.4768 56.5429 27.6689 51.4819 27.8647 46.3194C27.5137 46.3194 27.2219 46.3194 26.9301 46.3194C19.9352 46.3194 12.9385 46.3065 5.94371 46.3286C4.12805 46.3342 2.53957 45.8909 1.31128 44.4723C0.480097 43.5119 0.0146365 42.3925 0.0127895 41.1402C-0.00198705 29.1565 -0.00568118 17.1746 0.0109424 5.19266C0.0146365 2.35188 2.47123 0.0116478 5.38959 0.00610662C11.8081 -0.00497576 18.2267 0.00241249 24.6452 0.00241249C37.6209 0.00241249 50.5965 0.00241249 63.5721 0.00241249C66.991 0.00241249 69.2648 2.28354 69.2648 5.71723C69.2666 17.4221 69.2666 29.1288 69.2648 40.8336C69.2648 43.4971 67.6597 45.5732 65.0756 46.1846C64.479 46.3249 63.8399 46.312 63.2193 46.312C56.2467 46.3194 49.274 46.3175 42.3013 46.3175C42.0298 46.3194 41.7583 46.3194 41.4037 46.3194ZM34.6545 2.3408C34.6545 2.33895 34.6545 2.33895 34.6545 2.3371C33.755 2.3371 32.8536 2.3371 31.9541 2.3371C23.1583 2.33525 14.3608 2.3408 5.56506 2.32232C4.66739 2.32048 3.88239 2.52181 3.22483 3.13873C2.43614 3.87755 2.29207 4.82694 2.29391 5.85391C2.30315 17.3981 2.29945 28.9404 2.29945 40.4845C2.29945 40.6452 2.30684 40.8078 2.305 40.9685C2.27914 43.0168 4.05971 44.0678 5.5429 44.066C24.9131 44.0401 44.2832 44.0401 63.6534 44.0641C65.2566 44.066 66.9652 42.954 66.9559 40.8188C66.9116 29.0678 66.9098 17.3168 66.9596 5.56392C66.967 3.67992 65.445 2.29831 63.6737 2.3094C54.0025 2.37404 44.3276 2.3408 34.6545 2.3408ZM29.5363 61.6703C32.9829 61.6703 36.3556 61.6703 39.7173 61.6703C39.5898 58.558 39.4568 55.5436 39.3479 52.5292C39.2795 50.6415 39.237 48.752 39.2149 46.8624C39.2093 46.3526 38.9895 46.2566 38.537 46.2584C35.8606 46.2751 33.1824 46.2658 30.506 46.2677C30.3748 46.2677 30.2437 46.2898 30.1015 46.3028C29.9131 51.4339 29.7247 56.5226 29.5363 61.6703Z" fill="#4453A4"/>
<path d="M52.0192 21.14C54.3908 19.5478 56.6682 18.0185 59.1193 16.3727C58.1422 16.3727 57.3553 16.382 56.5685 16.369C55.7706 16.3561 55.3365 15.9091 55.3845 15.1814C55.4233 14.5922 55.826 14.1618 56.4687 14.1415C58.6132 14.075 60.7595 14.0214 62.9039 13.9992C63.7757 13.99 64.2615 14.6937 64.0343 15.5434C63.4728 17.6398 62.9039 19.7325 62.3479 21.829C62.1983 22.3942 61.8326 22.6878 61.2693 22.71C60.7115 22.7322 60.3568 22.4071 60.1943 21.9065C60.1296 21.7052 60.1536 21.4521 60.2054 21.2397C60.4806 20.1352 60.7798 19.0362 61.1141 17.7636C60.27 18.314 59.5386 18.7794 58.8201 19.2634C56.7255 20.6745 54.6309 22.0838 52.5548 23.5209C52.3332 23.6742 52.1226 24.0048 52.106 24.2671C51.8677 27.8522 50.6579 31.0698 48.4506 33.8903C45.7096 37.3905 42.1392 39.618 37.7635 40.3993C32.6638 41.3099 28.0166 40.1223 23.9069 36.9693C22.9981 36.2711 22.1651 35.451 21.4022 34.594C20.6616 33.761 20.0557 32.8061 19.3335 31.829C18.5079 32.5271 17.6508 33.2457 16.7994 33.9715C15.7835 34.8378 14.7787 35.7207 13.7535 36.5759C13.0794 37.1393 12.4994 37.0765 11.8917 36.4245C11.3265 35.8186 10.7613 35.2109 10.1425 34.5478C9.27072 35.3199 8.42846 36.0624 7.58989 36.8086C7.09118 37.2538 6.6054 37.7155 6.09931 38.1515C5.57844 38.6003 4.93566 38.5652 4.49975 38.0905C4.07308 37.6269 4.04722 37.0081 4.54593 36.5501C6.17873 35.0558 7.83001 33.5818 9.5016 32.1319C10.0613 31.6461 10.6228 31.7569 11.1917 32.3609C11.7753 32.9815 12.3516 33.6114 12.9685 34.2782C14.0343 33.3768 15.065 32.505 16.0956 31.6332C16.6941 31.1271 17.2814 30.6099 17.891 30.1186C18.2641 29.8193 18.3232 29.5312 18.1643 29.0547C16.1436 22.9649 17.0339 17.3166 20.9774 12.2575C23.7905 8.64645 27.5751 6.48354 32.1023 5.85923C37.9335 5.05391 43.0129 6.79754 47.1651 10.9793C49.908 13.737 51.4965 17.1226 52.0192 21.14ZM34.6217 38.399C42.9408 38.5172 49.8322 31.5778 49.884 23.3177C49.9375 14.8858 43.2475 7.99444 34.7861 7.91132C26.0882 7.82636 19.4166 14.8711 19.3705 23.1182C19.3243 31.4762 26.297 38.5338 34.6217 38.399Z" fill="#4453A4"/>
<path d="M54.2311 7.89313C53.3316 7.89313 52.4321 7.89867 51.5326 7.89128C50.7919 7.88574 50.295 7.43506 50.2969 6.78858C50.2987 6.15135 50.8085 5.68219 51.5363 5.68035C53.3113 5.67296 55.0882 5.67296 56.8632 5.68035C57.6242 5.68404 58.0675 6.10517 58.0675 6.79043C58.0656 7.47015 57.6149 7.88759 56.8595 7.89313C55.984 7.89682 55.1066 7.89313 54.2311 7.89313Z" fill="#4453A4"/>
<path d="M62.2903 7.89116C61.8747 7.89116 61.4591 7.90963 61.0454 7.88747C60.4709 7.85791 60.0073 7.36844 59.9944 6.81063C59.9815 6.27313 60.4488 5.70793 61.0029 5.68761C61.8784 5.65621 62.7558 5.65621 63.6294 5.68761C64.1798 5.70608 64.6619 6.27313 64.6527 6.80324C64.6416 7.35551 64.1706 7.85976 63.6017 7.88747C63.1658 7.90963 62.7281 7.89116 62.2903 7.89116Z" fill="#4453A4"/>
<path d="M44.6431 21.5559C44.3365 22.0694 44.1019 22.6494 43.7048 23.0798C42.9401 23.9091 42.1034 24.6775 41.2556 25.4255C40.8751 25.7617 40.7846 26.1145 40.8658 26.5763C41.0727 27.7251 41.2353 28.8851 41.4754 30.0266C41.6638 30.9206 41.396 31.6335 40.7255 32.1766C40.0476 32.727 39.2681 32.8304 38.4665 32.413C37.3675 31.8404 36.2648 31.2733 35.1787 30.6749C34.7964 30.4643 34.4916 30.4477 34.0982 30.6694C33.1008 31.2346 32.0646 31.7333 31.0616 32.2874C30.2194 32.7547 29.3845 32.8212 28.6032 32.2283C27.844 31.6501 27.5836 30.8818 27.8126 29.9065C28.0638 28.8389 28.2042 27.7455 28.3889 26.6612C28.472 26.1681 28.4092 25.758 27.9752 25.3831C27.1532 24.6775 26.4015 23.8906 25.6091 23.15C24.9312 22.5183 24.5969 21.7591 24.8629 20.8541C25.1252 19.9601 25.7772 19.4503 26.7081 19.3173C27.82 19.1566 28.9301 18.9719 30.0476 18.8463C30.5703 18.7872 30.9213 18.6283 31.1521 18.1112C31.6287 17.0473 32.1828 16.0184 32.6926 14.9693C33.0934 14.1455 33.7251 13.7004 34.6542 13.7096C35.5537 13.717 36.1706 14.1585 36.5622 14.9508C37.0683 15.976 37.6169 16.9845 38.0712 18.0317C38.3187 18.6006 38.6789 18.7853 39.2644 18.85C40.4484 18.983 41.6287 19.1732 42.7997 19.393C43.8359 19.587 44.4695 20.4126 44.4676 21.4488C44.5267 21.4876 44.584 21.5227 44.6431 21.5559ZM42.0295 21.5282C40.9102 21.362 39.8795 21.1422 38.8396 21.0702C37.5633 20.9815 36.6804 20.4606 36.1632 19.2582C35.7236 18.2368 35.1861 17.256 34.6302 16.133C34.0188 17.3742 33.4831 18.4861 32.9235 19.587C32.5522 20.3184 32.0184 20.8264 31.1392 20.9372C29.8573 21.1016 28.5847 21.3288 27.5153 21.4968C28.2892 22.3594 29.1 23.2996 29.9534 24.2009C30.6017 24.8862 30.8769 25.6195 30.6645 26.58C30.4041 27.7584 30.26 28.9608 30.0439 30.2704C31.0265 29.7458 31.9261 29.3007 32.7905 28.7964C33.9911 28.0964 35.127 27.9098 36.3756 28.7687C37.2216 29.3506 38.2042 29.7329 39.2367 30.2612C39.0409 29.1566 38.9209 28.1795 38.6845 27.232C38.3409 25.8541 38.5422 24.6923 39.7299 23.7927C40.0402 23.5582 40.3025 23.2552 40.5796 22.98C41.0487 22.5183 41.5086 22.051 42.0295 21.5282Z" fill="#4453A4"/>
</svg>

<svg xmlns="http://www.w3.org/2000/svg" width="70" height="64" fill="none"><path fill="#4453A4" d="m41.404 46.32.581 15.33h4.742c.253 0 .51-.018.76.007.644.065 1.144.597 1.135 1.18-.01.558-.49 1.068-1.097 1.148-.205.026-.416.01-.623.01h-24.52c-1.09 0-1.715-.424-1.72-1.168-.006-.743.623-1.175 1.708-1.177 1.57-.002 3.14-.005 4.71-.011.042 0 .085-.024.205-.063l.58-15.257h-.935c-6.995 0-13.992-.013-20.986.01-1.816.005-3.404-.438-4.633-1.857-.83-.96-1.296-2.08-1.298-3.332C-.002 29.157-.006 17.175.01 5.193.015 2.352 2.47.012 5.39.006 11.808-.005 18.227.002 24.645.002h38.927c3.419 0 5.693 2.282 5.693 5.715.002 11.705.002 23.412 0 35.117 0 2.663-1.605 4.74-4.19 5.35-.596.14-1.235.128-1.856.128-6.972.007-13.945.006-20.918.006l-.897.001Zm-6.75-43.98v-.003h-2.7c-8.796-.002-17.593.004-26.389-.015-.898-.002-1.683.2-2.34.817-.789.739-.933 1.688-.931 2.715.01 11.544.005 23.086.005 34.63 0 .161.008.324.006.484-.026 2.049 1.755 3.1 3.238 3.098 19.37-.026 38.74-.026 58.11-.002 1.604.002 3.312-1.11 3.303-3.245-.044-11.751-.046-23.502.004-35.255.007-1.884-1.515-3.266-3.286-3.255-9.672.065-19.346.032-29.02.032Zm-5.118 59.33h10.181c-.127-3.112-.26-6.126-.37-9.14a231.17 231.17 0 0 1-.132-5.668c-.006-.51-.226-.605-.678-.604-2.676.017-5.355.008-8.031.01-.131 0-.262.022-.404.035l-.566 15.367Z"/><path fill="#4453A4" d="M52.02 21.14c2.37-1.592 4.648-3.122 7.1-4.767-.978 0-1.765.009-2.551-.004-.798-.013-1.233-.46-1.184-1.188.038-.589.441-1.02 1.084-1.04 2.144-.066 4.29-.12 6.435-.142.872-.009 1.357.695 1.13 1.544-.561 2.097-1.13 4.19-1.686 6.286-.15.565-.515.859-1.079.881-.557.022-.912-.303-1.075-.803-.064-.202-.04-.455.011-.667.276-1.105.575-2.204.91-3.476-.845.55-1.576 1.015-2.295 1.5-2.095 1.41-4.19 2.82-6.265 4.257-.222.153-.432.484-.449.746-.238 3.585-1.448 6.803-3.655 9.623-2.741 3.5-6.312 5.728-10.688 6.51-5.1.91-9.746-.278-13.856-3.43-.909-.699-1.742-1.519-2.505-2.376-.74-.833-1.346-1.788-2.069-2.765-.825.698-1.682 1.417-2.534 2.142-1.015.867-2.02 1.75-3.045 2.605-.675.563-1.255.5-1.862-.151-.566-.606-1.13-1.214-1.75-1.877-.871.772-1.714 1.514-2.552 2.26-.499.446-.985.907-1.49 1.343-.522.45-1.164.414-1.6-.06-.427-.464-.453-1.083.046-1.54a249.237 249.237 0 0 1 4.956-4.42c.56-.485 1.12-.374 1.69.23.583.62 1.16 1.25 1.777 1.917l3.127-2.645c.598-.506 1.185-1.023 1.795-1.514.373-.3.432-.588.273-1.064-2.02-6.09-1.13-11.738 2.813-16.797 2.814-3.612 6.598-5.774 11.125-6.399 5.832-.805 10.91.939 15.063 5.12 2.743 2.758 4.331 6.144 4.854 10.161ZM34.621 38.399c8.319.118 15.21-6.821 15.262-15.081.053-8.432-6.636-15.324-15.098-15.407-8.698-.085-15.37 6.96-15.416 15.207-.046 8.358 6.927 15.416 15.252 15.281ZM54.231 7.893c-.9 0-1.799.006-2.698-.002-.741-.005-1.238-.456-1.236-1.102.002-.638.512-1.107 1.24-1.109 1.774-.007 3.551-.007 5.326 0 .761.004 1.205.425 1.205 1.11-.002.68-.453 1.098-1.209 1.103-.875.004-1.752 0-2.628 0ZM62.29 7.891c-.415 0-.83.019-1.245-.004a1.124 1.124 0 0 1-1.05-1.076c-.014-.538.454-1.103 1.008-1.123a36.628 36.628 0 0 1 2.626 0c.55.018 1.033.585 1.024 1.115-.011.553-.482 1.057-1.051 1.084-.436.023-.874.004-1.312.004Z"/><path fill="#4453A4" d="M44.643 21.556c-.306.513-.541 1.093-.938 1.524-.765.83-1.602 1.598-2.45 2.346-.38.336-.47.689-.39 1.15.208 1.15.37 2.31.61 3.45.189.895-.079 1.608-.75 2.15-.677.551-1.457.654-2.258.237-1.1-.573-2.202-1.14-3.288-1.738-.383-.21-.687-.227-1.08-.006-.998.566-2.034 1.064-3.037 1.618-.843.468-1.678.534-2.459-.059-.759-.578-1.02-1.346-.79-2.322.25-1.067.391-2.16.576-3.245.083-.493.02-.903-.414-1.278-.822-.706-1.574-1.492-2.366-2.233-.678-.632-1.012-1.39-.746-2.296.262-.894.914-1.404 1.845-1.537 1.112-.16 2.222-.345 3.34-.47.522-.06.873-.219 1.104-.736.477-1.064 1.03-2.093 1.54-3.142.401-.823 1.033-1.269 1.962-1.26.9.008 1.517.45 1.908 1.242.506 1.025 1.055 2.034 1.51 3.08.247.57.607.754 1.192.819 1.184.133 2.365.323 3.536.543 1.036.194 1.67 1.02 1.668 2.056.059.039.116.074.175.107Zm-2.614-.028c-1.119-.166-2.15-.386-3.19-.458-1.276-.088-2.159-.61-2.676-1.812-.44-1.021-.977-2.002-1.533-3.125-.611 1.241-1.147 2.353-1.707 3.454-.37.731-.905 1.24-1.784 1.35-1.282.165-2.554.392-3.624.56.774.862 1.585 1.803 2.438 2.704.649.685.924 1.418.712 2.379-.26 1.178-.405 2.38-.621 3.69.982-.524 1.882-.97 2.747-1.474 1.2-.7 2.336-.886 3.585-.027.846.582 1.828.964 2.86 1.492-.195-1.104-.315-2.081-.551-3.029-.344-1.378-.143-2.54 1.045-3.44.31-.234.573-.537.85-.812.469-.462.929-.929 1.45-1.452Z"/></svg>
